svgs/solid/file-import.svg

<svg xmlns="http://www.w3.org/2000/svg" viewBox="0 0 512 512"><!--! Font Awesome Pro 6.0.0-alpha3 by @fontawesome - https://fontawesome.com License - https://fontawesome.com/license (Commercial License) --><path d="M384 0v128h128L384 0zM352 128L352 0H176C149.5 0 128 21.49 128 48V288h174.1l-39.03-39.03c-9.375-9.375-9.375-24.56 0-33.94s24.56-9.375 33.94 0l80 80c9.375 9.375 9.375 24.56 0 33.94l-80 80c-9.375 9.375-24.56 9.375-33.94 0C258.3 404.3 256 398.2 256 392s2.344-12.28 7.031-16.97L302.1 336H128v128C128 490.5 149.5 512 176 512h288c26.51 0 48-21.49 48-48V160h-127.1C366.3 160 352 145.7 352 128zM24 288C10.75 288 0 298.7 0 312c0 13.25 10.75 24 24 24H128V288H24z"/></svg>

<svg xmlns="http://www.w3.org/2000/svg" viewBox="0 0 512 512"><!-- Font Awesome Pro 6.0.0-alpha2 by @fontawesome - https://fontawesome.com License - https://fontawesome.com/license (Commercial License) --><path d="M384 0V128H512L384 0ZM352 128V0H176C149.492 0 128 21.492 128 48V288H302.062L263.031 248.969C253.656 239.594 253.656 224.406 263.031 215.031S287.594 205.656 296.969 215.031L376.969 295.031C386.344 304.406 386.344 319.594 376.969 328.969L296.969 408.969C287.594 418.344 272.406 418.344 263.031 408.969C258.344 404.281 256 398.156 256 392S258.344 379.719 263.031 375.031L302.062 336H128V464C128 490.508 149.492 512 176 512H464C490.508 512 512 490.508 512 464V160H384C366.328 160 352 145.672 352 128ZM24 288C10.746 288 0 298.742 0 312C0 325.254 10.746 336 24 336H128V288H24Z"/></svg>
